src/svg/vnv.svg

<svg height="1000" width="1250.0" xmlns="http://www.w3.org/2000/svg">
    <path d="m204.9 687.5c-66.6 0-90.6-59.4-90.6-59.4l-109.2-217.7s-20.3-35.4 20.3-35.4h64.1c20.3 0 25.7 17 36.7 35.4l71.7 145.5s10.1 25.5 41.2 25.5c31 0 41.2-25.5 41.2-25.5l71.7-145.5c10.9-18.6 16.4-35.4 36.7-35.4h64c40.7 0 20.3 35.4 20.3 35.4l-108.9 217.7s-23.9 59.4-90.7 59.4h-68.5z m771.5 0c-66.6 0-90.7-59.4-90.7-59.4l-109.1-217.7s-20.4-35.4 20.3-35.4h64c20.3 0 25.8 17 36.8 35.4l71.6 145.5s10.2 25.5 41.2 25.5c31.1 0 41.3-25.5 41.3-25.5l71.8-145.5c11-18.6 16.4-35.4 36.8-35.4h64.2c40.6 0 20.3 35.4 20.3 35.4l-109.2 217.7s-23.8 59.4-90.6 59.4h-68.7z m-317-312.5c66.6 0 90.6 59.4 90.6 59.4l109.2 217.7s20.3 35.4-20.3 35.4h-64.1c-20.3 0-25.8-17-36.7-35.4l-71.7-145.5s-10.1-25.5-41.2-25.5c-31.1 0-41.2 25.5-41.2 25.5l-71.7 145.5c-10.9 18.4-16.4 35.4-36.7 35.4h-64.3c-40.6 0-20.3-35.4-20.3-35.4l109.2-217.7s23.8-59.4 90.6-59.4h68.6z" />
  </svg>

<svg height="1000" width="1250" xmlns="http://www.w3.org/2000/svg"><path d="M204.9 687.5c-66.6 0 -90.6 -59.4 -90.6 -59.4L5.1 410.4S-15.2 375 25.4 375h64.1c20.3 0 25.7 17 36.7 35.4l71.7 145.5s10.1 25.5 41.2 25.5 41.2 -25.5 41.2 -25.5L352 410.4C362.9 391.8 368.4 375 388.7 375h64c40.7 0 20.3 35.4 20.3 35.4L364.1 628.1s-23.9 59.4 -90.7 59.4h-68.5zm771.5 0c-66.6 0 -90.7 -59.4 -90.7 -59.4L776.6 410.4S756.3 375 796.9 375h64c20.4 0 25.8 17 36.8 35.4l71.6 145.5s10.2 25.5 41.2 25.5 41.3 -25.5 41.3 -25.5l71.8 -145.5c11 -18.6 16.4 -35.4 36.8 -35.4h64.2c40.6 0 20.3 35.4 20.3 35.4l-109.2 217.7s-23.8 59.4 -90.6 59.4h-68.7zM659.4 375c66.6 0 90.6 59.4 90.6 59.4l109.2 217.7s20.3 35.4 -20.3 35.4h-64.1c-20.3 0 -25.8 -17 -36.7 -35.4L666.4 506.6s-10.1 -25.5 -41.2 -25.5S584 506.6 584 506.6l-71.7 145.5c-10.9 18.4 -16.4 35.4 -36.7 35.4h-64.3c-40.6 0 -20.3 -35.4 -20.3 -35.4L500.2 434.4S524 375 590.8 375h68.6z"/></svg>
